modules/hawcons-filled/icons/icon-48-face-closed-eyes-open-mouth.svg

<?xml version="1.0" encoding="UTF-8" standalone="no"?>
<svg width="32px" height="32px" viewBox="0 0 32 32" version="1.1" xmlns="http://www.w3.org/2000/svg" xmlns:xlink="http://www.w3.org/1999/xlink" xmlns:sketch="http://www.bohemiancoding.com/sketch/ns">
    <!-- Generator: Sketch 3.0.3 (7891) - http://www.bohemiancoding.com/sketch -->
    <title>icon 48 face closed eyes open mouth</title>
    <desc>Created with Sketch.</desc>
    <defs></defs>
    <g id="Page-1" stroke="none" stroke-width="1" fill="none" fill-rule="evenodd" sketch:type="MSPage">
        <g id="icon-48-face-closed-eyes-open-mouth" sketch:type="MSArtboardGroup" fill="#929292">
            <path d="M16.5,29 C23.4035597,29 29,23.4035597 29,16.5 C29,9.59644029 23.4035597,4 16.5,4 C9.59644029,4 4,9.59644029 4,16.5 C4,23.4035597 9.59644029,29 16.5,29 Z M10,13 L10,14 L14,14 L14,13 L10,13 Z M19,13 L19,14 L23,14 L23,13 L19,13 Z M16.5,24 C17.8807119,24 19,22.8807119 19,21.5 C19,20.1192881 17.8807119,19 16.5,19 C15.1192881,19 14,20.1192881 14,21.5 C14,22.8807119 15.1192881,24 16.5,24 Z" id="face-closed-eyes-open-mouth" sketch:type="MSShapeGroup"></path>
        </g>
    </g>
</svg>

<svg width="32" height="32" xmlns="http://www.w3.org/2000/svg"><path d="M16.5 29C23.404 29 29 23.404 29 16.5S23.404 4 16.5 4 4 9.596 4 16.5 9.596 29 16.5 29zM10 13v1h4v-1h-4zm9 0v1h4v-1h-4zm-2.5 11a2.5 2.5 0 1 0 0-5 2.5 2.5 0 0 0 0 5z" fill="#929292" fill-rule="evenodd"/></svg>
